!!!OTL: DIE BINSCHGAUER WOLLTEN WALLFAHRTEN GEHN
!!!ARE: Europa, Mitteleuropa, Deutschland, Bayern
!!!SCT: E1762
!!!YEM: Copyright 1995, estate of Helmut Schaffrath.
**kern
*ICvox
*Ivox
*M4/4
*k[f#]
*G:
{8d
=1
8d
8g
8g
8g
4g
8g
8b
=2
8b
8a
8a
8f#
4g
8r}
{8g
=3
8g
8b
8b
8b
4b
8b
8dd
=4
8dd
8cc
8cc
8a
4b
8r}
{8g
=5
8f#
8a
8a
8a
4a
8a
8b
=6
8cc
8cc
8b
8b
4a
8r}
{8g
=7
8f#
8a
8a
8a
4a
8a
8b
=8
8cc
8cc
8b
8b
4a
8r}
{8d
=9
4dd
8r
8dd
4cc
8r
8cc
=10
8b
8g
8dd
8b
4a
8r}
{8d
=11
4dd
8r
8dd
4cc
8r
8cc
=12
8b
8g
8dd
8b
4a
8r}
{8d
=13
8g
8a
8b
8cc
8dd
8dd
4r
=14
8ee
8ee
4r
8dd
8dd
8r}
{8dd
=15
8dd
8cc
8cc
8a
8b
8dd
8gg
8b
=16
8dd
8cc
8cc
8a
4g
8r}
{8d
=17
8g
8a
8b
8cc
8dd
8dd
4r
=18
8ee
8ee
4r
8dd
8dd
8r}
{8dd
=19
8dd
8cc
8cc
8a
8b
8dd
8gg
8b
=20
8dd
8cc
8cc
8a
4g
8r}
==
!!!AGN: Spott - Lied auf Wallfahrt
!!!ONB: ESAC (Essen Associative Code) Database: ERK3
!!!AMT: simple quadruple
!!!AIN: vox
!!!EED: Helmut Schaffrath
!!!EEV: 1.0
*-
